**kern	**kern	**kern	**kern
*part4	*part3	*part2	*part1
*staff4	*staff3	*staff2	*staff1
*I"Cello	*I"Viola	*I"Violin II	*I"Violin I
*I'Vc.	*I'Vla.	*I'Vln. II	*I'Vln. I
*clefF4	*clefC3	*clefG2	*clefG2
*k[b-e-]	*k[b-e-]	*k[b-e-]	*k[b-e-]
*B-:	*B-:	*B-:	*B-:
*M3/4	*M3/4	*M3/4	*M3/4
=1	=1	=1	=1
!	!	!	!LO:TX:a:t=Menuetto
(<4BB-'	(<4B-'	2d	2b-
4BB-'	4B-'	.	.
4BB-')	4B-')	4g	4bb-
=2	=2	=2	=2
(<4BB-'	(<4B-'	(<8gL	(>8cccL
.	.	8f)	8aaJ)
4BB-'	4B-'	8f	(>8aaL
.	.	8e-)	8ggJ)
4BB-')	4B-')	(<8e-	(>8aaL
.	.	8dJ)	8ffJ)
=3	=3	=3	=3
(<4BB-'	(<4B-'	4d'	(>2ff
4BB-'	4B-'	4d'	.
4BB-')	4B-')	4d'	4ff#X)
=4	=4	=4	=4
(<4BB-'	(<4B-'	4e-'	4aa
4BB-'	4B-'	4e-'	4r
4BB-')	4B-')	4g'	(>12bb-L
.	.	.	12gg
.	.	.	12ee-J)
=5	=5	=5	=5
(<4BB-'	(<4B-'	4f	4dd
4BB-'	4B-'	4f	4r
4BB-')	4B-')	12gL	(>12ee-L
.	.	12e-	12cc
.	.	12cJ	12aJ)
=6	=6	=6	=6
4BB-	4B-	4d	4b-
4r	4r	4r	4r
4r	4r	4r	(>12ddL
.	.	.	12b-
.	.	.	12gJ)
=7	=7	=7	=7
!!linebreak:original
4F	4f	(2d	2f
4F	4f	.	.
4F	4f	4c)	4e-T
=8	=8	=8	=8
4BB-	4B-	4B-	4d
4r	4r	4r	4b-
4r	4r	4r	(>12ddL
.	.	.	12b-)
.	.	.	12gJ
=9	=9	=9	=9
4FF	4F	(2d	2f
4FF	4F	.	.
4FF	4F	4c)	4e-T
=10	=10	=10	=10
4BB-	4B-	4B-	4d
4r	4r	4r	4r
4r	4r	4r	4r
=11:|!|:	=11:|!|:	=11:|!|:	=11:|!|:
4F'	4f'	4a	2cc
4F'	4f'	4a	.
4F'	4f'	4a	4ff
=12	=12	=12	=12
4G	4g	4b-	8ffL
.	.	.	8ee-J
4r	4r	4r	(>8ggL
.	.	.	8ffJ)
4r	4r	4r	(>8aaL
.	.	.	8ggJ)
=13	=13	=13	=13
!!linebreak:original
4En'	4c' 4en	4g	2cc
4E'	4c' 4e	4g	.
4E'	4c' 4e	4g	4bb-
=14	=14	=14	=14
4F	4c 4f	4f	(>8bb-L
.	.	.	8aaJ)
4r	4r	4r	(>8cccL
.	.	.	8bb-J)
4r	4r	4r	(>8dddL
.	.	.	8cccJ)
=15	=15	=15	=15
2.r	2.r	4f	2ccc
.	.	4a	.
.	.	4f	4fff
=16	=16	=16	=16
2.r	2.r	4cc	(>4ggg
.	.	4b-	4eeen)
.	.	4a	4eee
=17	=17	=17	=17
2.r	2.r	4b-	(>12dddL
.	.	.	12ccc
.	.	.	12bb-J)
.	.	4cc	4aa
.	.	4c	4ggT
=18	=18	=18	=18
4r	4r	4f	2ff
(>4F	(>4f	4r	.
4E-)	4e-)	4r	4r
=19	=19	=19	=19
!!linebreak:original
4D	4d	4ff'	4ff'
4r	4r	4ff'	4ff'
4r	4r	4ff'	4ff'
=20	=20	=20	=20
4e-	4ee-	(8ff#XL	(>8ff#XL
.	.	8ggJ	8ggJ
4e-	4ee-	8ffnL	8ffnL
.	.	8ee-J	8ee-J
4e-	4ee-	8ddL	8ddL
.	.	8ccJ)	8ccJ)
=21	=21	=21	=21
(>8cL	(>8ccL	4ee-'	4ee-'
8B-)	8b-)	.	.
(>8A	(>8a	4ee-'	4ee-'
8G)	8g)	.	.
(>8F	8f	4ee-'	4ee-'
8E-J)	8e-J)	.	.
=22	=22	=22	=22
4D	4d	(8eenL	(>8eenL
.	.	8ffJ	8ffJ
4r	4r	8ee-XL	8ee-XL
.	.	8ddJ	8ddJ
4r	4r	8ccL	8ccL
.	.	8b-J)	8b-J)
=23	=23	=23	=23
4r	4r	4a	(>8aL
.	.	.	8ccJ)
4F	4f	4cc	4ee-
4F	4f	4b-	4dd
=24	=24	=24	=24
.	.	4qqb-/	4qqdd/
[4F	[4f	2a	2cc
8FL]	8fL]	.	.
8E-	8e-	.	.
8D	8d	4r	4r
8CJ	8cJ	.	.
=25	=25	=25	=25
!!linebreak:original
(<4BB-'	(<4B-'	2d	2b-
4BB-'	4B-'	.	.
4BB-')	4B-')	4g	4bb-
=26	=26	=26	=26
(<4BB-'	(<4B-'	(8gL	(>8bb-L
.	.	8fJ)	8aaJ)
4BB-'	4B-'	(8fL	(>8aaL
.	.	8e-J)	8ggJ)
4BB-')	4B-')	(8e-L	(>8ggL
.	.	8dJ)	8ffJ)
=27	=27	=27	=27
(<4BB-'	(<4B-'	4d'	(>2ff
4BB-'	4B-'	4d'	.
4BB-')	4B-')	4d'	4ff#X)
=28	=28	=28	=28
4BB-'	(<4B-'	4e-'	4gg
4BB-'	4B-'	4e-'	4r
4BB-'	4B-')	4g'	(>12bb-L
.	.	.	12gg
.	.	.	12eenJ)
=29	=29	=29	=29
(<4BB-'	(<4B-'	4f	4dd
4BB-'	4B-'	4f	4r
4BB-')	4B-')	(12gL	(>12eenL
.	.	12e-	12cc
.	.	12cJ)	12aJ)
=30	=30	=30	=30
4BB-	4B-	4d	4b-
4r	4r	4r	4r
4r	4r	4r	(>12ddL
.	.	.	12b-
.	.	.	12gJ)
=31	=31	=31	=31
!!linebreak:original
4F	4f	(2d	2f
4F	4f	.	.
4F	4f	4c)	4e-T
=32	=32	=32	=32
4BB-	4B-	4B-	4d
4r	4r	4r	4b-
4r	4r	4r	(>12ddL
.	.	.	12b-
.	.	.	12gJ)
=33	=33	=33	=33
4FF	4F	(2d	2f
4FF	4F	.	.
4FF	4F	4c)	4e-T
=34	=34	=34	=34
4BB-	4B-	4B-	4d
4r	4r	4r	4r
4r	4r	4r	4r
=35:|!|:	=35:|!|:	=35:|!|:	=35:|!|:
*k[b-e-a-]	*k[b-e-a-]	*k[b-e-a-]	*k[b-e-a-]
*E-:	*E-:	*E-:	*E-:
(>2E-	(>2e-	2.r	2.r
4D)	4f)	.	.
=36	=36	=36	=36
4E-	4g	4r	4rff
4r	4r	4r	4rff
4r	4r	(>4gg	(>4bb-
=37	=37	=37	=37
!!linebreak:original
2.r	2.r	4ee-')	4gg')
.	.	4b-'	4ee-'
.	.	4g'	4b-'
=38	=38	=38	=38
(>2D	(>2f	4B-'	4f'
.	.	4r	4r
4E-)	4g)	4r	4r
=39	=39	=39	=39
4F	4a-	4r	4r
4r	4r	4r	4r
4r	4r	(>4ff	(>4aa-
=40	=40	=40	=40
2.r	2.r	4dd')	4ff')
.	.	4a-'	4dd'
.	.	4f'	4a-'
=41	=41	=41	=41
(>2E-	(>2g	4e-'	4g'
.	.	4r	4r
4F)	4a-)	4r	4r
=42	=42	=42	=42
4G	4b-	4r	4r
4r	4r	4r	4r
4r	4r	(4b-	(>4dd-X
=43	=43	=43	=43
!!linebreak:original
4r	4r	4a-)	4cc)
4r	4r	4f	4aa-'
(>4A-	(>4cc	4r	4r
=44	=44	=44	=44
4G')	4b-')	4r	4r
4E-'	4g'	4r	4r
4r	4r	(4g	(>4b-
=45	=45	=45	=45
4r	4r	4f)	4a-')
4r	4r	4d	4ff'
(>4F	(>4a-	4r	4r
=46	=46	=46	=46
4E-')	4g')	4r	4r
4G'	4e-'	4r	4r
4r	4b-'	4b-'	4b-'
=47	=47	=47	=47
4r	4B-	4B-'	4B-'
(>4D	4B-	(4f	4a-
4E-)	4B-	4e-)	4g
=48	=48	=48	=48
4B-'	4B-	4d	4f
4BB-'	4r	4r	4r
4r	4r	4r	4r
=49	=49	=49	=49
!!linebreak:original
(>2G	(>2b-	2.r	2.r
4F)	4cc)	.	.
=50	=50	=50	=50
4En	4dd-X	4r	4r
4r	4r	4r	4r
4r	4r	(4b-	(>4dd-X
=51	=51	=51	=51
4r	4r	4g')	4b-X)
4r	4r	4en'	4g
4BB-'	4en'	4r	4r'
=52	=52	=52	=52
(<4AA-	(4f	4r	4r
4FF)	4a-)	4r	4r
4r	2r	(4a-	(>4cc
=53	=53	=53	=53
4r	.	4f')	4a-')
4r	4r	4d'	4f'
4AA-'	4r	4r	4r
.	4d'	.	.
=54	=54	=54	=54
(<4GG	.	4r	4r
4EE-)	(>4e-	4r	4r
4r	4g)	(4g	(>4b-
.	4r	.	.
=55	=55	=55	=55
!!linebreak:original
4r	.	4a-')	4cc')
!!linebreak:original
4r	4r	4f'	4a-'
(<4BB-	4r	4r	4r
.	(>4d	.	.
=56	=56	=56	=56
4C)	.	4r	4r
4AAn'	4e-')	4r	4r
4r	4c'	(4dd	(>4ff
.	4r	.	.
=57	=57	=57	=57
4r	.	4ee-')	4gg)
4r	4r	4cc'	4ee-'
(>4F	4r	4r	4r'
.	(>4a-	.	.
=58	=58	=58	=58
4G')	.	4r	4r
4E-'	4b-')	4r	4r
4r	4g'	(4gg	(>4bb-
.	4r	.	.
=59	=59	=59	=59
2.r	.	4ee-')	4gg')
.	2.r	4b-'	4ee-'
.	.	4g'	4b-'
=60	=60	=60	=60
4r	.	4e-'	4g
4r	4r	4r	4r
(<4GG	4r	4r	4r
.	(4b-	.	.
=61	=61	=61	=61
!!linebreak:original
4AA-)	.	2.r	2.r
!!linebreak:original
4FF	4e-)	.	.
4BB-	(8a-L	.	.
.	8fJ)	.	.
.	8e-'L	.	.
.	8d'J	.	.
=62	=62	=62	=62
4E-	.	2.r	2.r
4EE-	4e-	.	.
4r	4r	.	.
=:|!	=:|!	=:|!	=:|!
*-	*-	*-	*-
!!!system-decoration: [(s1,s2,s3,s4)]
!!!RDF**kern: > = above
!!!RDF**kern: < = below
